X:1
T:Thirds against a Single Voice
T:Thirds against a Single Voice
T:from Mikrokosmos 3
T:Bartók Béla, Sz. 107
C:Bartók Béla, Sz. 107
%%score { 1 | 2 }
L:1/8
Q:1/4=110
M:4/4
K:C
V:1 treble nm="Piano" snm="Pno."
V:2 bass 
V:1
"^Andante,"!p! ([Ac]2 B2 [Ac]2!<(! [Bd]2 | [Ac]8- | [Ac]2 [Bd]2 [Ac]2 [Bd]2 | [ce]8) | %4
 ([Bd]2 [ce]2 [Bd]2 [Ac]2 | B2 [Ac]2 [Bd]4)!<)! |!mf! !>![Bc]8- | [Bc]8- | [Bc]2 z2 ([Ac]4- | %9
 [Ac]2 B2 A2 B2 | c8- | c2) (d2 c2 d2 |!>(! B8-[Q:1/4=110] | %13
[Q:1/4=109]"^.8" B2)[Q:1/4=108]"^.8" (c4[Q:1/4=103]"^.1" !breath!B2)!>)![Q:1/4=106]"^.7" | %14
!p![Q:1/4=98] A8- | A8 |] %16
V:2
 (A,8- | A,2 E,2 A,2 G,2 | F,8 | E,2) (D,2 E,2 ^F,2 | G,8- | G,4 =F,2 G,2 | E,4) (!>!A,4- | %7
 A,4 G,4) | ([F,A,]2 [E,G,]2 [F,A,]2 [E,G,]2 | [F,A,]8- | [F,A,]2 [E,G,]2 [D,F,]2 [E,G,]2 | %11
 [D,F,]8) | ([E,G,]2 [F,A,]2 [E,G,]2 [D,F,]2 | [E,G,]4 [D,F,]2 [E,G,]2) | A,8- | A,8 |] %16

